src/icons/file-react-js.svg

<svg width="16" height="16" viewBox="0 0 16 16" fill="none" xmlns="http://www.w3.org/2000/svg">
<g clip-path="url(#clip0_11_400)">
<path d="M8 11.5C9.98409 11.5 11.8041 11.1563 13.1467 10.5809C13.8171 10.2936 14.3916 9.93859 14.8058 9.51895C15.222 9.09716 15.5 8.5833 15.5 8C15.5 7.4167 15.222 6.90284 14.8058 6.48105C14.3916 6.06141 13.8171 5.70643 13.1467 5.41911C11.8041 4.84369 9.98409 4.5 8 4.5C6.01591 4.5 4.19593 4.84369 2.85329 5.41911C2.18286 5.70643 1.60837 6.06141 1.19422 6.48105C0.77795 6.90284 0.5 7.4167 0.5 8C0.5 8.5833 0.77795 9.09716 1.19422 9.51895C1.60837 9.93859 2.18286 10.2936 2.85329 10.5809C4.19593 11.1563 6.01591 11.5 8 11.5Z" stroke="#5BAFD4"/>
<circle cx="8" cy="8" r="2" fill="#5BAFD4"/>
<path d="M11.0311 9.75C12.0231 8.03173 12.6355 6.28373 12.8085 4.83327C12.8949 4.109 12.8747 3.43398 12.7183 2.8655C12.5612 2.2941 12.2551 1.79646 11.75 1.50481C11.2449 1.21316 10.6609 1.19694 10.0874 1.34655C9.51694 1.49539 8.92228 1.81543 8.33823 2.25238C7.16859 3.12743 5.96096 4.53173 4.96891 6.25C3.97687 7.96827 3.36452 9.71627 3.19153 11.1667C3.10515 11.891 3.12531 12.566 3.28166 13.1345C3.4388 13.7059 3.74485 14.2035 4.25 14.4952C4.75515 14.7868 5.33915 14.8031 5.91256 14.6535C6.48306 14.5046 7.07772 14.1846 7.66177 13.7476C8.83141 12.8726 10.039 11.4683 11.0311 9.75Z" stroke="#5BAFD4"/>
<path d="M11.0311 6.25C10.039 4.53173 8.83141 3.12743 7.66176 2.25238C7.07772 1.81543 6.48305 1.49539 5.91256 1.34655C5.33915 1.19694 4.75515 1.21316 4.25 1.50481C3.74485 1.79646 3.4388 2.29411 3.28166 2.8655C3.12531 3.43398 3.10514 4.109 3.19153 4.83327C3.36452 6.28374 3.97687 8.03173 4.96891 9.75C5.96096 11.4683 7.16859 12.8726 8.33824 13.7476C8.92228 14.1846 9.51694 14.5046 10.0874 14.6535C10.6609 14.8031 11.2449 14.7868 11.75 14.4952C12.2551 14.2035 12.5612 13.7059 12.7183 13.1345C12.8747 12.566 12.8949 11.891 12.8085 11.1667C12.6355 9.71627 12.0231 7.96827 11.0311 6.25Z" stroke="#5BAFD4"/>
</g>
<defs>
<clipPath id="clip0_11_400">
<rect width="16" height="16" fill="white"/>
</clipPath>
</defs>
</svg>

<svg xmlns="http://www.w3.org/2000/svg" width="16" height="16" fill="none"><g clip-path="url(#a)"><path stroke="#5BAFD4" d="M8 11.5c1.984 0 3.804-.344 5.147-.92.67-.286 1.245-.641 1.659-1.061.416-.422.694-.936.694-1.519s-.278-1.097-.694-1.519c-.414-.42-.989-.775-1.66-1.062C11.805 4.844 9.985 4.5 8 4.5s-3.804.344-5.147.92c-.67.286-1.245.641-1.659 1.061C.778 6.903.5 7.417.5 8s.278 1.097.694 1.519c.414.42.989.775 1.66 1.062 1.342.575 3.162.919 5.146.919Z"/><circle cx="8" cy="8" r="2" fill="#5BAFD4"/><path stroke="#5BAFD4" d="M11.031 9.75c.992-1.718 1.604-3.466 1.777-4.917.087-.724.067-1.399-.09-1.968-.157-.57-.463-1.069-.968-1.36s-1.09-.308-1.663-.158c-.57.148-1.165.468-1.749.905-1.17.875-2.377 2.28-3.37 3.998-.991 1.718-1.603 3.466-1.776 4.917-.087.724-.067 1.399.09 1.967.157.572.463 1.07.968 1.361.505.292 1.09.308 1.663.159.57-.15 1.165-.47 1.749-.906 1.17-.875 2.377-2.28 3.37-3.998Z"/><path stroke="#5BAFD4" d="M11.031 6.25c-.992-1.718-2.2-3.123-3.37-3.998-.583-.437-1.178-.757-1.748-.905-.574-.15-1.158-.134-1.663.158-.505.291-.811.79-.968 1.36-.157.569-.177 1.244-.09 1.968.173 1.45.785 3.199 1.777 4.917s2.2 3.123 3.37 3.998c.583.437 1.178.757 1.748.906.574.15 1.158.133 1.663-.159.505-.291.811-.79.968-1.36.157-.569.177-1.244.09-1.968-.172-1.45-.785-3.199-1.777-4.917Z"/></g><defs><clipPath id="a"><path fill="#fff" d="M0 0h16v16H0z"/></clipPath></defs></svg>
